packages/ui/public/icons/messages-star-icon.svg

<svg width="26" height="26" viewBox="0 0 26 26" fill="none" xmlns="http://www.w3.org/2000/svg">
  <path opacity="0.12" d="M12.2229 3.74096C12.4725 3.23511 12.5974 2.98218 12.7669 2.90136C12.9143 2.83106 13.0857 2.83106 13.2331 2.90136C13.4027 2.98218 13.5275 3.23511 13.7772 3.74096L16.1461 8.54008C16.2198 8.68942 16.2566 8.76409 16.3105 8.82207C16.3582 8.8734 16.4154 8.91499 16.4789 8.94453C16.5507 8.9779 16.6331 8.98995 16.7978 9.01403L22.0968 9.78855C22.6548 9.8701 22.9337 9.91088 23.0629 10.0472C23.1752 10.1657 23.228 10.3287 23.2066 10.4906C23.182 10.6767 22.9801 10.8735 22.5761 11.267L18.7432 15.0001C18.6238 15.1165 18.564 15.1748 18.5254 15.244C18.4913 15.3052 18.4694 15.3726 18.461 15.4422C18.4514 15.5209 18.4655 15.6031 18.4937 15.7675L19.3982 21.0405C19.4935 21.5967 19.5412 21.8747 19.4516 22.0397C19.3736 22.1833 19.235 22.284 19.0744 22.3138C18.8897 22.3481 18.6399 22.2166 18.1405 21.954L13.4034 19.4628C13.2558 19.3852 13.182 19.3465 13.1042 19.3312C13.0354 19.3176 12.9646 19.3176 12.8958 19.3312C12.818 19.3465 12.7442 19.3852 12.5967 19.4628L7.8595 21.954C7.36008 22.2166 7.11036 22.3481 6.92572 22.3138C6.76507 22.284 6.62645 22.1833 6.54847 22.0397C6.45884 21.8747 6.50653 21.5967 6.60191 21.0405L7.5063 15.7675C7.53449 15.6031 7.54859 15.5209 7.53905 15.4422C7.5306 15.3726 7.5087 15.3052 7.47458 15.244C7.43602 15.1748 7.37629 15.1165 7.25681 15.0001L3.42394 11.267C3.01997 10.8735 2.81798 10.6767 2.79341 10.4906C2.77202 10.3287 2.82485 10.1657 2.93719 10.0472C3.06631 9.91088 3.3453 9.8701 3.90329 9.78855L9.20217 9.01403C9.36696 8.98995 9.44936 8.9779 9.52112 8.94453C9.58464 8.91499 9.64184 8.8734 9.68954 8.82207C9.7434 8.76409 9.78026 8.68942 9.85397 8.54008L12.2229 3.74096Z" fill="white" />
  <path d="M12.2229 3.74096C12.4725 3.23511 12.5974 2.98218 12.7669 2.90136C12.9143 2.83106 13.0857 2.83106 13.2331 2.90136C13.4027 2.98218 13.5275 3.23511 13.7772 3.74096L16.1461 8.54008C16.2198 8.68942 16.2566 8.76409 16.3105 8.82207C16.3582 8.8734 16.4154 8.91499 16.4789 8.94453C16.5507 8.9779 16.6331 8.98995 16.7978 9.01403L22.0968 9.78855C22.6548 9.8701 22.9337 9.91088 23.0629 10.0472C23.1752 10.1657 23.228 10.3287 23.2066 10.4906C23.182 10.6767 22.9801 10.8735 22.5761 11.267L18.7432 15.0001C18.6238 15.1165 18.564 15.1748 18.5254 15.244C18.4913 15.3052 18.4694 15.3726 18.461 15.4422C18.4514 15.5209 18.4655 15.6031 18.4937 15.7675L19.3982 21.0405C19.4935 21.5967 19.5412 21.8747 19.4516 22.0397C19.3736 22.1833 19.235 22.284 19.0744 22.3138C18.8897 22.3481 18.6399 22.2166 18.1405 21.954L13.4034 19.4628C13.2558 19.3852 13.182 19.3465 13.1042 19.3312C13.0354 19.3176 12.9646 19.3176 12.8958 19.3312C12.818 19.3465 12.7442 19.3852 12.5967 19.4628L7.8595 21.954C7.36008 22.2166 7.11036 22.3481 6.92572 22.3138C6.76507 22.284 6.62645 22.1833 6.54847 22.0397C6.45884 21.8747 6.50653 21.5967 6.60191 21.0405L7.5063 15.7675C7.53449 15.6031 7.54859 15.5209 7.53905 15.4422C7.5306 15.3726 7.5087 15.3052 7.47458 15.244C7.43602 15.1748 7.37629 15.1165 7.25681 15.0001L3.42394 11.267C3.01997 10.8735 2.81798 10.6767 2.79341 10.4906C2.77202 10.3287 2.82485 10.1657 2.93719 10.0472C3.06631 9.91088 3.3453 9.8701 3.90329 9.78855L9.20217 9.01403C9.36696 8.98995 9.44936 8.9779 9.52112 8.94453C9.58464 8.91499 9.64184 8.8734 9.68954 8.82207C9.7434 8.76409 9.78026 8.68942 9.85397 8.54008L12.2229 3.74096Z" stroke="white" stroke-width="2" stroke-linecap="round" stroke-linejoin="round" />
</svg>

<svg width="26" height="26" fill="none" xmlns="http://www.w3.org/2000/svg"><path opacity=".12" d="M12.223 3.741c.25-.506.374-.759.544-.84a.542.542 0 0 1 .466 0c.17.081.294.334.544.84l2.37 4.8c.073.148.11.223.164.281a.542.542 0 0 0 .168.123c.072.033.154.045.319.069l5.299.775c.558.081.837.122.966.258a.542.542 0 0 1 .144.444c-.025.186-.227.383-.63.776L18.742 15c-.12.117-.179.175-.218.244a.54.54 0 0 0-.064.198c-.01.079.005.161.033.325l.904 5.274c.096.556.143.834.054.999a.542.542 0 0 1-.378.274c-.184.034-.434-.097-.934-.36l-4.737-2.491c-.147-.078-.221-.117-.299-.132a.537.537 0 0 0-.208 0c-.078.015-.152.054-.3.132L7.86 21.954c-.499.263-.749.394-.933.36a.542.542 0 0 1-.378-.274c-.09-.165-.041-.443.054-1l.904-5.272c.028-.165.043-.247.033-.326a.541.541 0 0 0-.064-.198c-.039-.07-.099-.127-.218-.244l-3.833-3.733c-.404-.393-.606-.59-.63-.776a.541.541 0 0 1 .143-.444c.13-.136.408-.177.966-.258l5.3-.775c.164-.024.246-.036.318-.07a.542.542 0 0 0 .169-.122c.053-.058.09-.133.164-.282l2.369-4.799Z" fill="#fff"/><path d="M12.223 3.741c.25-.506.374-.759.544-.84a.542.542 0 0 1 .466 0c.17.081.294.334.544.84l2.37 4.8c.073.148.11.223.164.281a.542.542 0 0 0 .168.123c.072.033.154.045.319.069l5.299.775c.558.081.837.122.966.258a.542.542 0 0 1 .144.444c-.025.186-.227.383-.63.776L18.742 15c-.12.117-.179.175-.218.244a.54.54 0 0 0-.064.198c-.01.079.005.161.033.325l.904 5.274c.096.556.143.834.054.999a.542.542 0 0 1-.378.274c-.184.034-.434-.097-.934-.36l-4.737-2.491c-.147-.078-.221-.117-.299-.132a.537.537 0 0 0-.208 0c-.078.015-.152.054-.3.132L7.86 21.954c-.499.263-.749.394-.933.36a.542.542 0 0 1-.378-.274c-.09-.165-.041-.443.054-1l.904-5.272c.028-.165.043-.247.033-.326a.541.541 0 0 0-.064-.198c-.039-.07-.099-.127-.218-.244l-3.833-3.733c-.404-.393-.606-.59-.63-.776a.541.541 0 0 1 .143-.444c.13-.136.408-.177.966-.258l5.3-.775c.164-.024.246-.036.318-.07a.542.542 0 0 0 .169-.122c.053-.058.09-.133.164-.282l2.369-4.799Z" stroke="#fff" stroke-width="2" stroke-linecap="round" stroke-linejoin="round"/></svg>
